Adwaita++-Dark/actions/16/group-edit.svg

<svg height="16" width="16" xmlns="http://www.w3.org/2000/svg">
  <g fill="#e6ddff">
    <path d="m2 2s-1 0-1 1v11s0 1 1 1h7v-2.414l5-5.0001 1 1v-3.5859c0-1-1-1-1-1h-5l-2-2z"/>
    <path d="m14 9-4 4v1.996l2 .004 4-4z"/>
  </g>
</svg>

<svg xmlns="http://www.w3.org/2000/svg" width="16" height="16" version="1.1">
 <defs>
  <style id="current-color-scheme" type="text/css">
   .ColorScheme-Text { color:#E6DDFF; } .ColorScheme-Highlight { color:#4285f4; }
  </style>
 </defs>
 <path style="fill:currentColor" class="ColorScheme-Text" d="M 2,2 C 2,2 1,2 1,3 V 14 C 1,14 1,15 2,15 H 9 V 12.586 L 14,7.5859 15,8.5859 V 5 C 15,4 14,4 14,4 H 9 L 7,2 Z"/>
 <path style="fill:currentColor" class="ColorScheme-Text" d="M 14,9 10,13 V 14.996 L 12,15 16,11 Z"/>
</svg>
